X: 143
T: No_68_Divorce_Song.krn
%%abc-version 2.0
%%abcx-abcm2ps-target-version 5.9.1 (29 Sep 2008)
%%abc-creator hum2abc beta
%%abcx-conversion-date 2020/08/10 18:54:58
%%gracespace 0 6 6
%%humdrum-veritas 2685128022
%%humdrum-veritas-data 654944623
%%linebreak <none>
%%barnumbers 0
L: 1/8
M: 3/4
%%staves {1 2}
V: 1 clef=treble
V: 2 clef=bass
K: Eb
[V:1] [K:clef=treble][M:3/4]G2(3GFE E3/G/ | 
[V:2] [K:clef=bass][M:3/4]G,,G,, G,,G,, G,,G,, | 
[V:1] G2(3GFEE2 | 
[V:2] z6 | 
[V:1] F2(3FEB,B,2[K:clef=bass] | 
[V:2] z6 | 
[V:1] {/E}B,2(3B,A,E,E,2 | 
[V:2] z6 | 
[V:1] A,2(3A,F,E, E,3/E,/ | 
[V:2] z6 | 
[V:1] E,6 |]  
[V:2] z6 |]  


